!!!!SEGMENT: pl-sa--598-a-ix-78--003_anonim--la-violette.krn
!!!cenid: 18xx:642
!!!COM: Anonim
!!!COM-rismID: pe30004985
!!!CDT:
!!!CNT:
!!!OTL: La Violette
!!!PDT:
!!!AGN: Secular
!!!SMS-siglum: PL-SA
!!!SMS-shelfmark: 598/A IX 78
!!!SMS-shelfwork: 003 W
!!!SMS-variant:
!!!SMS-altvar:
!!!NIFC-rismSourceID: 1001092519
!!!NIFC-islandoraID:
!!!URL-pdf-islandora:
!!!URL-scan: https://bc.bdsandomierz.pl/dlibra/publication/1406/edition/1374/content @EN{Scan in the Sandomierz Diocese Digital Library} @PL{Skany w portalu Cyfrowa Biblioteka Diecezjalna w Sandomierzu}
!!!ONB-nifc: Str. 2
!!!AIN: 1 piano
!!!key:
**kern	**kern	**dynam
*part1	*part1	*part1
*staff2	*staff1	*
*Ipiano	*Iempty	*
*I"Piano	*	*
*I'P-no	*	*
*clefF4	*clefG2	*
*k[f#c#]	*k[f#c#]	*
*D:	*D:	*
*M6/8	*M6/8	*
=1	=1	=1
!LO:TX:a:t=P:problem=klucz zapisany jako F3	!LO:TX:a:t=P:problem=klucz zapisany jako G1	!
4F# 4D\	4f# 4d/	pp
8F# 8D\	8f# 8d/	.
4A 4F#\	4a 4f#/	.
8A 8F#\	8a 8f#/	.
=2	=2	=2
4.E 4.AA/	4.e 4.A/	.
4.G 4.E\	4.g 4.e/	.
=3	=3	=3
2.ryy	8f#L 8d/	.
.	8g 8e/	.
.	8aJ 8f#/	.
.	8aL 8f#/	.
.	8g 8e/	.
.	8f#J 8d/	.
=4	=4	=4
*	*tremolo	*
!	!LO:TX:a:t=P:problem=złe wyświetlanie wartości rytmicznej tremolo	!
!	!LO:N:TREM:vis=4	!
2.ryy	8e 8A/L|	.
.	8e 8A/	.
.	8e 8A/J	.
.	4e 4A/	.
*	*Xtremolo	*
.	8r	.
=5	=5	=5
2.ryy	4f# 4d/	.
.	8f# 8d/	.
.	4a 4f#/	.
.	8a 8f#/	.
=6	=6	=6
2.ryy	4.e 4.A/	.
.	4.g 4.e/	.
=7	=7	=7
4.D 4.DD/	8f#L 8d/	.
.	8g 8e/	.
.	8aJ 8f#/	.
4.AA 4.AAA/	8gL 8e/	.
.	8f# 8d/	.
.	8eJ 8A/	.
=8	=8	=8
!	!LO:N:vis=8.	!
8D 8DD\	8dL 8F#</	.
8r	8a/	.
4r	8b/J	.
.	8cc#/L	<
8r	8dd/	.
!LO:N:vis=4	!	!
8r	8ee/J	.
*clefG2	*	*
=9	=9	=9
4f# 4d/	4ff# 4dd\	ff
8f# 8d/	8ff# 8dd\	.
4a 4f#/	4aa 4ff#\	.
8a 8f#/	8aa 8ff#\	.
=10	=10	=10
4.e 4.A/	4.ee 4.a\	.
4.g 4.e/	4.gg 4.ee\	.
=11	=11	=11
8f#L 8d/	8ff#L 8dd\	.
8g 8e/	8gg 8ee\	.
8aJ 8f#/	8aaJ 8ff#\	.
8aL 8f#/	8aaL 8ff#\	.
8g 8e/	8gg 8ee\	.
8f#J 8d/	8ff#J 8dd\	.
=12	=12	=12
*tremolo	*tremolo	*
!LO:TX:a:t=P:problem=złe wyświetlanie wartości rytmicznej tremolo	!LO:TX:a:t=P:problem=złe wyświetlanie wartości rytmicznej tremolo	!
!LO:N:TREM:vis=4	!LO:N:TREM:vis=4	!
8e 8A/L|	8ee 8a\L|	.
8e 8A/	8ee 8a\	.
8e 8A/J	8ee 8a\J	.
4e 4A/	4ee 4a\	.
*Xtremolo	*Xtremolo	*
8r	8r	.
!!LO:LB:g=original
=13	=13	=13
4f# 4d/	4f# 4d/	.
8f# 8d/	8f# 8d/	.
4a 4f#/	8a 8f#/	.
.	8r	.
8a 8f#/	8a 8f#/	.
=14	=14	=14
4.e 4.A/	4.ee 4.a\	.
4.g 4.e/	4.gg 4.ee\	.
*clefF4	*	*
=15	=15	=15
4.d 4.D\	8ff#L 8dd\	.
.	8gg 8ee\	.
.	8ff#J 8dd\	.
4.A 4.AA\	8eeL 8cc#\	.
.	8ff# 8dd\	.
.	8eeJ 8a\	.
=16	=16	=16
*tremolo	*tremolo	*
!LO:TX:a:t=P:problem=złe wyświetlanie wartości rytmicznej tremolo	!LO:TX:a:t=P:problem=złe wyświetlanie wartości rytmicznej tremolo	!
!LO:N:TREM:vis=4	!LO:N:TREM:vis=4	!
8D 8DD/L|	8dd 8f#/L|	.
8D 8DD/	8dd 8f#/	.
8D 8DD/J	8dd 8f#/J	.
4D 4DD/	4dd 4f#/	.
*Xtremolo	*Xtremolo	*
8r	8r	.
=17||	=17||	=17||
8A\L	4.ee\	.
8c#\	.	.
8e\J	.	.
.	8qdd/	.
*rep	*	*
8A\L	8cc#\L	.
8c#\	8b\	.
8e\J	8a\J	.
*Xrep	*	*
=18	=18	=18
8A/L	(4.dd\	.
8d/	.	.
8f#/J	.	.
*rep	*	*
8A/L	8dd\L)	.
8d/	8ee\	.
8f#/J	8ff#\J	.
*Xrep	*	*
=19	=19	=19
.	8qaa/	.
8A/L	8gg\L	.
8c#/	8ff#\	.
8e/J	8gg\J	.
*rep	*	*
8A/L	8bb\L	.
8c#/	8aa\	.
8e/J	8gg\J	.
*Xrep	*	*
=20	=20	=20
*rep	*	*
8A/L	8ff#/L	.
8c#/	8bb/	.
8e/J	8aa/J	.
8A/L	8aa/L	.
8c#/	8ff#/	.
8e/J	8dd/J	.
*Xrep	*	*
=21	=21	=21
*rep	*	*
8A/L	4.ee\	.
8c#/	.	.
8e/J	.	.
.	8qdd/	.
8A/L	8cc#/L	.
8c#/	8b/	.
8e/J	8a/J	.
*Xrep	*	*
=22	=22	=22
!	!LO:N:vis=4	!
8F#/L	(4.dd\	.
8A/	.	.
8d/J	.	.
8D/L	8dd\L)	.
8F#/	8cc#\	.
8B/J	8b\J	.
=23	=23	=23
8E\L	8ff#\L	.
8A\	8ee\	.
!	!LO:TX:a:t=c	!
8c#\J	8dd\J	.
8E\L	8ee\L	.
8G#X\	8dd\	.
8B\J	8b\J	.
=24	=24	=24
*^	*	*
4c#/	4A\	8a/L	.
.	.	8b/	.
8r	2ryy	8b#X/J	.
4rF	.	8cc#\L	.
.	.	8dd\	.
8r	.	8dd#X\J	.
*v	*v	*	*
!!LO:LB:g=original
=25	=25	=25
8A\L	4.ee\	.
8e 8c#\	.	.
8eJ 8c#\	.	.
.	8qdd#X/	.
*rep	*	*
8A\L	8cc#/L	.
8e 8c#\	8b/	.
8eJ 8c#\	8a/J	.
*Xrep	*	*
=26	=26	=26
8A\L	4.dd\	.
8f#J 8d\|	.	.
8ryy	.	.
*rep	*	*
8A\L	8dd\L	.
8f#J 8d\|	8ee\	.
8ryy	8ff#\J	.
*Xrep	*	*
=27	=27	=27
.	8qqaa/	.
8A\L	8gg\L	.
!	!LO:TX:a:t=P:problem=# above	!
8gJ 8e\|	8ff#X\	.
8ryy	8gg\J	.
*rep	*	*
8A\L	8bb\L	.
8gJ 8e\|	8aa\	.
8ryy	8gg\J	.
*Xrep	*	*
=28	=28	=28
*^	*	*
8A\L	4A/	8ff#\L	.
8f# 8d\	.	8bb\	.
8f#J 8d\	8ryy	8aa\J	.
*rep	*rep	*	*
8A\L	4A/	8aa\L	.
8f# 8d\	.	8gg 8ff#\	.
8f#J 8d\	8ryy	8dd\J	.
*Xrep	*Xrep	*	*
=29	=29	=29	=29
8A/L	4.A\	4.ee\	.
8e 8c#/	.	.	.
8eJ 8c#/	.	.	.
.	.	8qdd/	.
*rep	*rep	*	*
8A/L	4.A\	8cc#/L	.
8e 8c#/	.	8b/	.
8eJ 8c#/	.	8a/J	.
*Xrep	*Xrep	*	*
=30	=30	=30	=30
!	!	!LO:N:vis=4	!
8F#/L	4F#\	(4.dd\	.
8d 8A/	.	.	.
8dJ 8A/	8ryy	.	.
8D\L	4.ryy	8dd\L)	.
8BJ 8F#\|	.	8cc#\	.
8ryy	.	8b\J	.
=31	=31	=31	=31
8E/L	4E\	8ff#\L	.
8c#J 8A/|	.	8ee\	.
8ryy	8ryy	8cc#\J	.
8E/L	4E\	8ee\L	.
8B 8G#X/	.	8dd\	.
8BJ 8G#/	8ryy	8b\J	.
*v	*v	*	*
=32	=32	=32
8c# 8A\	8a/L	.
8r	8A/	.
8r	8B/J	.
4r	8c#L 8A/	.
.	8d 8B/	.
8r	8eJ 8c#/	.
=33	=33	=33
4F# 4D\	4f# 4d/	pp
8F# 8D\	8f# 8d/	.
4A 4F#\	4a 4f#/	.
8A 8F#\	8a 8f#/	.
=34	=34	=34
4.E 4.AA/	4.e 4.A/	.
4.G 4.E\	4.g 4.e/	.
=35	=35	=35
8F#L 8D\	8f#L 8d/	.
8G 8E\	8g 8e/	.
8AJ 8F#\	8aJ 8f#/	.
8AL 8F#\	8aL 8f#/	.
8G 8E\	8g 8e/	.
8F#J 8D\	8f#J 8d/	.
=36	=36	=36
*tremolo	*tremolo	*
!LO:TX:a:t=P:problem=złe wyświetlanie wartości rytmicznej tremolo	!LO:TX:a:t=P:problem=złe wyświetlanie wartości rytmicznej tremolo	!
!LO:N:TREM:vis=4	!LO:N:TREM:vis=4	!
8E 8AA\L|	8e 8A/L|	.
8E 8AA\	8e 8A/	.
8E 8AA\J	8e 8A/J	.
*Xtremolo	*Xtremolo	*
4E 4AA\	4e 4A/	.
8r	8r	.
=37	=37	=37
4F# 4D\	4f# 4d/	ff
8F# 8D\	8f# 8d/	.
4A 4F#\	4a 4f#/	.
8A 8F#\	8a 8f#/	.
!!LO:LB:g=original
=38	=38	=38
4.E 4.AA/	4.e 4.A/	.
4.G 4.E\	4.g 4.e/	.
=39	=39	=39
4.D 4.DD/	8f#L 8d/	.
.	8g 8e/	.
.	8f#J 8d/	.
4.AA 4.AAA/	8eL 8A/	.
.	8f# 8d/	.
.	8eJ 8A/	.
=40	=40	=40
*tremolo	*tremolo	*
!LO:TX:a:t=P:problem=złe wyświetlanie wartości rytmicznej tremolo	!LO:TX:a:t=P:problem=złe wyświetlanie wartości rytmicznej tremolo	!
!LO:N:TREM:vis=4	!LO:N:TREM:vis=4	!
8D 8FF#\L|	8d 8F#</L|	.
8D 8FF#\	8d 8F#</	.
8D 8FF#\J	8d 8F#</J	.
!	!LO:N:vis=4	!
8D 8FF#\	8d 8F#</	.
*Xtremolo	*Xtremolo	*
!LO:TX:a:t=P:problem=miejsce nieczytelne	!	!
4ryy	8r	.
.	16r	.
!LO:TX:a:t=P:problem=zbędna kreska taktowa	!LO:TX:a:t=P:problem=zbędna kreska taktowa	!
.	16f#/	.
=41	=41	=41
4.B 4.F# 4.D 4.BB\	4.b 4.f# 4.d/	ff
*rep	*	*
4.B 4.F# 4.D 4.BB\	4.dd 4.b 4.f# 4.d/	.
*Xrep	*	*
=42	=42	=42
4.A#X 4.E 4.AA#X/	4.cc# 4.f#/	.
4.A# 4.AA#/	4.ff# 4.cc# 4.a#X 4.f#\	.
=43	=43	=43
*	*^	*
4.F# 4.FF#/	8gg/L	4.a#X\	.
.	8ff#/	.	.
.	8ee/J	.	.
!LO:N:vis=4	!	!LO:N:vis=4	!
4.F# 4.FF#/	8ee/L	4.a#\	.
.	8dd/	.	.
.	8cc#/J	.	.
*	*v	*v	*
=44	=44	=44
4.B 4.F# 4.D 4.BB\	(>4.dd 4.b 4.f#/	.
*rep	*	*
4.B 4.F# 4.D 4.BB\	4b 4f# 4d/)	.
.	16r	.
.	16f#/	.
*Xrep	*	*
=45	=45	=45
*rep	*	*
4.B 4.F# 4.D 4.BB\	4.b 4.f# 4.d/	.
*Xrep	*	*
*rep	*	*
4.B 4.F# 4.D 4.BB\	4.dd 4.b 4.f# 4.d/	.
*Xrep	*	*
=46	=46	=46
4.A 4.AA\	4.cc# 4.a 4.f#/	.
!LO:N:vis=4	!	!
4.G#X 4.GG#X\	4.ee#X 4.cc# 4.b\	.
=47	=47	=47
4F# 4FF#/	4ff# 4cc# 4a\	.
8B 8BB\	8gg#X 8dd\	.
4c# 4C#\	4ff# 4cc# 4a\	.
8C# 8CC#/	8ee 8cc# 8b 8g#X\	.
=48	=48	=48
8F# 8FF#/	4ff# 4a\	.
8r	.	.
8r	8ee 8gn\	.
4r	4dd 4f#/	.
8r	8cc# 8e/	.
=49	=49	=49
*^	*	*
!	!	!	!LO:DY:t= mez f
4.BB/	8BB\L	4.bn 4.d/	mf
.	8D\	.	.
.	8F#\J	.	.
*rep	*rep	*	*
4.BB/	8BB\L	4.dd\	.
.	8D\	.	.
.	8F#\J	.	.
*Xrep	*Xrep	*	*
*v	*v	*	*
=50	=50	=50
!	!LO:N:vis=4	!
8AA#X/L	4.cc#\	.
8C#/	.	.
8F#/J	.	.
!	!LO:N:vis=4	!
8FF#/L	4.ff#\	.
8C#/	.	.
8F#/J	.	.
=51	=51	=51
8AA#X/L	8gg\L	.
8C#/	8ff#\	.
8F#/J	8ee\J	.
8FF#/L	8ee\L	.
8C#/	8dd\	.
8F#/J	8cc#\J	.
!!LO:LB:g=original
=52	=52	=52
!	!LO:N:vis=4	!
8BB\L	4.dd\	.
8D\	.	.
8F#\J	.	.
*rep	*	*
8BB\L	4b\	.
8D\	.	.
8F#\J	16r	.
.	16f#/	.
*Xrep	*	*
=53	=53	=53
!LO:TX:a:t=P:problem=partia do końca nieczytelna	!	!
2.ryy	4.b\	.
.	4.dd\	.
=54	=54	=54
2.ryy	4.cc#\	.
.	4.gg\	.
=55	=55	=55
2.ryy	8ff#\L	.
.	8ff#\J	.
!	!LO:TX:a:t=P:problem=nuty nieczytelne	!
.	8ryy	.
.	4ryy	.
.	8a/	.
=56	=56	=56
2.ryy	(>4.b/	.
.	8b/L)	.
.	8a 8f#/	.
!	!LO:TX:b:t=DC	!
.	8gJ 8e/	.
==	==	==
*-	*-	*-
!!!system-decoration: {s1,s2}
!!!RDF**kern: > = above
!!!RDF**kern: < = below
!!!RDF**dynam: < = "cres:"
!!!RDF**kern: | = vertical stroke
!!!ENC: Marta Lawrence
!!!END: 2020-12-14
!!!ENC: Kamil Watkowski
!!!END: 2020-06-20
